udata_front/theme/gouvfr/templates/svg/socials/github.svg

<svg fill="none" height="20" viewBox="0 0 20 20" width="20" xmlns="http://www.w3.org/2000/svg"><path d="m6.92334 16.0469c0-.0781-.07813-.1563-.19531-.1563-.11719 0-.19532.0782-.19532.1563s.07813.1562.19532.1172c.11718 0 .19531-.0391.19531-.1172zm-1.21094-.1953c0 .0781.07813.1953.19531.1953.07813.039.19532 0 .23438-.0781 0-.0782-.03906-.1563-.15625-.1954-.11719-.039-.23438 0-.27344.0782zm1.75781-.0391c-.11718 0-.19531.0781-.19531.1953 0 .0781.11719.1172.23438.0781.11718-.039.19531-.0781.15625-.1562 0-.0781-.11719-.1563-.19532-.1172zm2.53909-15c-5.39065 0-9.531273 4.14062-9.531273 9.5313 0 4.3359 2.695313 8.0468 6.601563 9.375.50781.0781.66406-.2344.66406-.4688 0-.2734 0-1.6016 0-2.4219 0 0-2.73437.586-3.32031-1.1719 0 0-.42969-1.1328-1.05469-1.4062 0 0-.89844-.625.03906-.625 0 0 .97657.0781 1.52344 1.0156.85938 1.5235 2.26563 1.0938 2.85156.8203.07813-.625.3125-1.0547.625-1.3281-2.1875-.2344-4.41406-.5469-4.41406-4.29686 0-1.09375.3125-1.60156.9375-2.30469-.11719-.27344-.42969-1.28906.11719-2.65625.78125-.23438 2.69531 1.05469 2.69531 1.05469.78125-.23438 1.60156-.3125 2.42185-.3125.8594 0 1.6797.07812 2.461.3125 0 0 1.875-1.32813 2.6953-1.05469.5469 1.36719.1953 2.38281.1172 2.65625.625.70313 1.0156 1.21094 1.0156 2.30469 0 3.74996-2.3047 4.06246-4.4922 4.29686.3516.3125.6641.8984.6641 1.836 0 1.289-.0391 2.9296-.0391 3.2421 0 .2735.1953.586.7031.4688 3.9063-1.2891 6.5625-5 6.5625-9.3359 0-5.39068-4.414-9.5313-9.8437-9.5313zm-5.74221 13.4766c-.07813.039-.03906.1562 0 .2343.07812.0391.15625.0782.23437.0391.03907-.0391.03907-.1563-.03906-.2344-.07812-.039-.15625-.0781-.19531-.039zm-.42969-.3125c-.03906.0781 0 .1172.07813.1562.07812.0391.15625.0391.19531-.039 0-.0391-.03906-.0782-.11719-.1172-.07812-.0391-.11719-.0391-.15625 0zm1.25 1.4062c-.03906.0391-.03906.1563.07813.2344.07812.0781.19531.1172.23437.039.03906-.039.03906-.1562-.03906-.2343-.07813-.0781-.19531-.1172-.27344-.0391zm-.42969-.5859c-.07812.039-.07812.1562 0 .2343.07813.0782.15625.1172.23438.0782.03906-.0391.03906-.1563 0-.2344-.07813-.0781-.15625-.1172-.23438-.0781z" fill="#000"/></svg>

<svg width="20" height="20" viewBox="0 0 20 20" fill="none" xmlns="http://www.w3.org/2000/svg">
<path d="M6.92334 16.0469C6.92334 15.9688 6.84521 15.8906 6.72803 15.8906C6.61084 15.8906 6.53271 15.9688 6.53271 16.0469C6.53271 16.125 6.61084 16.2031 6.72803 16.1641C6.84521 16.1641 6.92334 16.125 6.92334 16.0469ZM5.7124 15.8516C5.7124 15.9297 5.79053 16.0469 5.90771 16.0469C5.98584 16.0859 6.10303 16.0469 6.14209 15.9688C6.14209 15.8906 6.10303 15.8125 5.98584 15.7734C5.86865 15.7344 5.75146 15.7734 5.7124 15.8516ZM7.47021 15.8125C7.35303 15.8125 7.2749 15.8906 7.2749 16.0078C7.2749 16.0859 7.39209 16.125 7.50928 16.0859C7.62646 16.0469 7.70459 16.0078 7.66553 15.9297C7.66553 15.8516 7.54834 15.7734 7.47021 15.8125ZM10.0093 0.8125C4.61865 0.8125 0.478027 4.95312 0.478027 10.3438C0.478027 14.6797 3.17334 18.3906 7.07959 19.7188C7.5874 19.7969 7.74365 19.4844 7.74365 19.25C7.74365 18.9766 7.74365 17.6484 7.74365 16.8281C7.74365 16.8281 5.00928 17.4141 4.42334 15.6562C4.42334 15.6562 3.99365 14.5234 3.36865 14.25C3.36865 14.25 2.47021 13.625 3.40771 13.625C3.40771 13.625 4.38428 13.7031 4.93115 14.6406C5.79053 16.1641 7.19678 15.7344 7.78271 15.4609C7.86084 14.8359 8.09521 14.4062 8.40771 14.1328C6.22021 13.8984 3.99365 13.5859 3.99365 9.83594C3.99365 8.74219 4.30615 8.23438 4.93115 7.53125C4.81396 7.25781 4.50146 6.24219 5.04834 4.875C5.82959 4.64062 7.74365 5.92969 7.74365 5.92969C8.5249 5.69531 9.34521 5.61719 10.1655 5.61719C11.0249 5.61719 11.8452 5.69531 12.6265 5.92969C12.6265 5.92969 14.5015 4.60156 15.3218 4.875C15.8687 6.24219 15.5171 7.25781 15.439 7.53125C16.064 8.23438 16.4546 8.74219 16.4546 9.83594C16.4546 13.5859 14.1499 13.8984 11.9624 14.1328C12.314 14.4453 12.6265 15.0312 12.6265 15.9688C12.6265 17.2578 12.5874 18.8984 12.5874 19.2109C12.5874 19.4844 12.7827 19.7969 13.2905 19.6797C17.1968 18.3906 19.853 14.6797 19.853 10.3438C19.853 4.95312 15.439 0.8125 10.0093 0.8125ZM4.26709 14.2891C4.18896 14.3281 4.22803 14.4453 4.26709 14.5234C4.34521 14.5625 4.42334 14.6016 4.50146 14.5625C4.54053 14.5234 4.54053 14.4062 4.4624 14.3281C4.38428 14.2891 4.30615 14.25 4.26709 14.2891ZM3.8374 13.9766C3.79834 14.0547 3.8374 14.0938 3.91553 14.1328C3.99365 14.1719 4.07178 14.1719 4.11084 14.0938C4.11084 14.0547 4.07178 14.0156 3.99365 13.9766C3.91553 13.9375 3.87646 13.9375 3.8374 13.9766ZM5.0874 15.3828C5.04834 15.4219 5.04834 15.5391 5.16553 15.6172C5.24365 15.6953 5.36084 15.7344 5.3999 15.6562C5.43896 15.6172 5.43896 15.5 5.36084 15.4219C5.28271 15.3438 5.16553 15.3047 5.0874 15.3828ZM4.65771 14.7969C4.57959 14.8359 4.57959 14.9531 4.65771 15.0312C4.73584 15.1094 4.81396 15.1484 4.89209 15.1094C4.93115 15.0703 4.93115 14.9531 4.89209 14.875C4.81396 14.7969 4.73584 14.7578 4.65771 14.7969Z" fill="black"/>
</svg>
